icons/op-view-modal-16.svg

<svg width="16" height="16" viewBox="0 0 16 16" fill="none" xmlns="http://www.w3.org/2000/svg">
<g clip-path="url(#clip0_35_1761)">
<path d="M0 1.75C0 0.784 0.784 0 1.75 0H14.25C15.216 0 16 0.784 16 1.75V14.25C16 14.7141 15.8156 15.1592 15.4874 15.4874C15.1592 15.8156 14.7141 16 14.25 16H1.75C1.28587 16 0.840752 15.8156 0.512563 15.4874C0.184374 15.1592 0 14.7141 0 14.25V1.75ZM1.75 1.5C1.6837 1.5 1.62011 1.52634 1.57322 1.57322C1.52634 1.62011 1.5 1.6837 1.5 1.75V14.25C1.5 14.388 1.612 14.5 1.75 14.5H14.25C14.3163 14.5 14.3799 14.4737 14.4268 14.4268C14.4737 14.3799 14.5 14.3163 14.5 14.25V1.75C14.5 1.6837 14.4737 1.62011 14.4268 1.57322C14.3799 1.52634 14.3163 1.5 14.25 1.5H1.75Z" fill="#1F2328"/>
<path fill-rule="evenodd" clip-rule="evenodd" d="M10.771 5.24896L8.01 4.49996L5.25 5.24796L8.011 5.99696L10.771 5.24896ZM4.501 6.54696V10.043L7.261 10.791V7.29596L4.501 6.54696ZM8.761 10.79L11.519 10.043V6.54896L8.761 7.29596V10.79ZM7.26 3.20096C7.48803 3.06931 7.7467 3 8.01 3C8.27331 3 8.53197 3.06931 8.76 3.20096L12.27 4.38096C12.4982 4.51269 12.6876 4.7022 12.8193 4.93042C12.951 5.15863 13.0202 5.41749 13.02 5.68096V10.043C13.02 10.3063 12.9507 10.565 12.819 10.793C12.6874 11.021 12.498 11.2104 12.27 11.342L8.76 12.522C8.53197 12.6537 8.27331 12.723 8.01 12.723C7.7467 12.723 7.48803 12.6537 7.26 12.522L3.75 11.342C3.52183 11.2103 3.33239 11.0208 3.20073 10.7925C3.06906 10.5643 2.99983 10.3055 3 10.042V5.68196C2.99983 5.41849 3.06906 5.15963 3.20073 4.93142C3.33239 4.7032 3.52183 4.51369 3.75 4.38196L7.261 3.20196L7.26 3.20096Z" fill="#1F2328"/>
</g>
<defs>
<clipPath id="clip0_35_1761">
<rect width="16" height="16" fill="white"/>
</clipPath>
</defs>
</svg>

<svg xmlns="http://www.w3.org/2000/svg" width="16" height="16" viewBox="0 0 16 16"><path d="M0 1.75C0 .784.784 0 1.75 0h12.5C15.216 0 16 .784 16 1.75v12.5c0 .464-.184.909-.513 1.237A1.746 1.746 0 0 1 14.25 16H1.75c-.464 0-.909-.184-1.237-.513A1.746 1.746 0 0 1 0 14.25Zm1.75-.25a.25.25 0 0 0-.25.25v12.5c0 .138.112.25.25.25h12.5a.25.25 0 0 0 .25-.25V1.75a.25.25 0 0 0-.25-.25Z"/><path d="M7.26 3.201a1.497 1.497 0 0 1 1.5 0l3.51 1.18a1.498 1.498 0 0 1 .75 1.3v4.362a1.497 1.497 0 0 1-.75 1.299l-3.51 1.18a1.497 1.497 0 0 1-1.5 0l-3.51-1.18a1.494 1.494 0 0 1-.75-1.3v-4.36a1.5 1.5 0 0 1 .75-1.3l3.511-1.18ZM4.501 6.547v3.496l2.76.748V7.296Zm4.26 4.243 2.758-.747V6.549l-2.758.747Zm2.01-5.541L8.01 4.5l-2.76.748 2.761.749Z"/></svg>
